/* XPM */
static char * title_3_inactive[] = {
"16 20 3 1",
". c #C0C0C0",
"* c #808080",
"+ c #404040",
"................",
"****************",
"****************",
"****************",
"****************",
"****************",
"****************",
"****************",
"****************",
"****************",
"****************",
"****************",
"****************",
"****************",
"****************",
"****************",
"****************",
"****************",
"****************",
"++++++++++++++++"
};
